X:635
T:Da Green Isle 
C:Joe Buchanan's Scottish Tome - Page 189.3
I:189 3
C:Willie Hunter
R:Reel
Z:Carl Allison
L:1/8
M:4/4
K:G
GA | BGDB, G,B,DG | BGDB, A,AAc | BGDB, G,gfe |  dBcA BG G2 :|
e | dBgB dgBg | dBgB aAAe | dBgB edeg |  BdAc BG G2 :|

